X: 1
T: Luke the Bear
C: David A Kaynor Feb.2017
%D:2017
R: reel
Z: 2020 John Chambers <jc:trillian.mit.edu>
M: C|
L: 1/8
K: D
de |\
"D"f3e d2AG | FAdA FAcd | "A"e3d cAAF | "Em"GABc "A"defg |
"D"f3e d2AG | FAdA FAcd | "A"e3d cAFG | Addc "D"d2 :|
|: FG |\
"D"A3G FDEF | "A7"GFGE "D"FDD2 | A3G FDEF | "Em"GEFD "A"E2FG |
"D"A3G FDEF | "A7"GFGE "D"FDD2 | "Em"EFGA Bcde | "A"f2ec "D"d2 :|
%%text for Shirley Griffin
